Sources/FrostedUI/Resources/Icons.xcassets/medalCheck20.imageset/medal-check-20.svg

<svg
  width="20"
  height="20"
  viewBox="0 0 20 20"
  fill="none"
  xmlns="http://www.w3.org/2000/svg"
  data-fui-icon="true"
>
  <g clip-path="url(#clip0_622_704)">
    <path
      fill-rule="evenodd"
      clip-rule="evenodd"
      d="M2.24983 0C1.05413 0 -0.106433 1.00924 0.148572 2.37997C0.580305 4.70068 1.87191 6.39802 3.02477 7.50052C3.56703 8.01909 4.08599 8.4134 4.48607 8.68708C3.55501 9.87573 2.99996 11.373 2.99996 13C2.99996 16.866 6.13397 20 9.99996 20C13.866 20 17 16.866 17 13C17 11.373 16.4449 9.87569 15.5138 8.68703C15.9139 8.41335 16.4328 8.01906 16.9751 7.50052C18.1279 6.39802 19.4195 4.70068 19.8513 2.37997C20.1063 1.00924 18.9457 0 17.75 0H16.0488C14.5023 0 13.3848 1.24629 13.1151 2.58945C12.8702 3.80951 12.4223 4.80072 12.0356 5.48608C11.871 5.77782 11.7185 6.01236 11.5993 6.18353C11.0856 6.06349 10.5502 6 9.99996 6C9.44969 6 8.91425 6.0635 8.40057 6.18356C8.28135 6.01238 8.12882 5.77783 7.9642 5.48608C7.57748 4.80072 7.1296 3.80951 6.88468 2.58945C6.61505 1.24629 5.49749 0 3.95105 0H2.24983ZM14.5994 7.49474C14.5456 7.53084 14.4949 7.56404 14.4476 7.59437C14.0229 7.24448 13.5562 6.94369 13.0562 6.70066C13.146 6.55924 13.2424 6.39979 13.342 6.22321C13.787 5.43452 14.3028 4.29426 14.5858 2.88468C14.751 2.06191 15.3861 1.5 16.0488 1.5H17.75C17.9611 1.5 18.1417 1.58693 18.2542 1.706C18.3604 1.81839 18.4048 1.95385 18.3766 2.10563C18.0209 4.01714 16.9506 5.4484 15.9383 6.41644C15.4342 6.89858 14.9527 7.25759 14.5994 7.49474ZM6.94364 6.7007C6.85383 6.55927 6.75746 6.39981 6.65781 6.22321C6.2128 5.43452 5.69698 4.29426 5.41402 2.88468C5.24885 2.06191 4.61375 1.5 3.95105 1.5H2.24983C2.0387 1.5 1.85808 1.58693 1.74561 1.706C1.63944 1.81839 1.59503 1.95385 1.62327 2.10563C1.97888 4.01714 3.04923 5.4484 4.06149 6.41644C4.56565 6.89858 5.0471 7.25759 5.40042 7.49474C5.45423 7.53085 5.50496 7.56407 5.55223 7.59441C5.97698 7.24452 6.44367 6.94373 6.94364 6.7007ZM15.5 13C15.5 16.0376 13.0375 18.5 9.99996 18.5C6.9624 18.5 4.49996 16.0376 4.49996 13C4.49996 9.96243 6.9624 7.5 9.99996 7.5C13.0375 7.5 15.5 9.96243 15.5 13ZM13.0303 12.0303C13.3232 11.7374 13.3232 11.2626 13.0303 10.9697C12.7374 10.6768 12.2626 10.6768 11.9697 10.9697L9 13.9393L8.03033 12.9697C7.73744 12.6768 7.26256 12.6768 6.96967 12.9697C6.67678 13.2626 6.67678 13.7374 6.96967 14.0303L8.46967 15.5303C8.76256 15.8232 9.23744 15.8232 9.53033 15.5303L13.0303 12.0303Z"
      fill="currentColor"
    />
  </g>
  <defs>
    <clipPath id="clip0_622_704">
      <path fill="currentColor" d="M0 0H20V20H0z" />
    </clipPath>
  </defs>
</svg>

<svg xmlns="http://www.w3.org/2000/svg" width="20" height="20" fill="none" data-fui-icon="true" viewBox="0 0 20 20"><g clip-path="url(#a)"><path fill="currentColor" fill-rule="evenodd" d="M2.25 0C1.054 0-.106 1.01.149 2.38.58 4.7 1.872 6.398 3.025 7.5c.542.52 1.061.913 1.461 1.187a7 7 0 1 0 11.028 0c.4-.274.919-.668 1.461-1.186 1.153-1.103 2.444-2.8 2.876-5.121C20.106 1.01 18.946 0 17.75 0h-1.701c-1.547 0-2.664 1.246-2.934 2.59a9.9 9.9 0 0 1-1.08 2.896 9 9 0 0 1-.436.698 7 7 0 0 0-3.198 0 9 9 0 0 1-.437-.698 9.9 9.9 0 0 1-1.08-2.897C6.616 1.246 5.498 0 3.952 0zM14.6 7.495l-.152.1a7 7 0 0 0-1.392-.894q.136-.213.286-.478a11.4 11.4 0 0 0 1.244-3.338c.165-.823.8-1.385 1.463-1.385h1.701c.211 0 .392.087.504.206.106.112.15.248.123.4-.356 1.911-1.426 3.342-2.439 4.31-.504.483-.985.842-1.339 1.079M6.943 6.7q-.136-.213-.286-.478a11.4 11.4 0 0 1-1.244-3.338c-.165-.823-.8-1.385-1.463-1.385H2.25a.7.7 0 0 0-.504.206.44.44 0 0 0-.123.4c.356 1.911 1.426 3.342 2.438 4.31a10 10 0 0 0 1.491 1.178c.425-.35.892-.65 1.392-.893M15.5 13a5.5 5.5 0 1 1-11 0 5.5 5.5 0 0 1 11 0m-2.47-.97a.75.75 0 1 0-1.06-1.06L9 13.94l-.97-.97a.75.75 0 0 0-1.06 1.06l1.5 1.5a.75.75 0 0 0 1.06 0z" clip-rule="evenodd"/></g><defs><clipPath id="a"><path fill="currentColor" d="M0 0h20v20H0z"/></clipPath></defs></svg>
